Numix-GalliumOS/scalable/actions/view-fullscreen-symbolic.svg

<?xml version="1.0" encoding="UTF-8" standalone="no"?>
<svg
   xmlns:dc="http://purl.org/dc/elements/1.1/"
   xmlns:cc="http://creativecommons.org/ns#"
   xmlns:rdf="http://www.w3.org/1999/02/22-rdf-syntax-ns#"
   xmlns:svg="http://www.w3.org/2000/svg"
   xmlns="http://www.w3.org/2000/svg"
   xmlns:sodipodi="http://sodipodi.sourceforge.net/DTD/sodipodi-0.dtd"
   xmlns:inkscape="http://www.inkscape.org/namespaces/inkscape"
   viewBox="0 0 16 16"
   id="svg2"
   version="1.1"
   inkscape:version="0.48.4 r9939"
   width="100%"
   height="100%"
   sodipodi:docname="view-fullscreen-symbolic.svg">
  <metadata
     id="metadata34">
    <rdf:RDF>
      <cc:Work
         rdf:about="">
        <dc:format>image/svg+xml</dc:format>
        <dc:type
           rdf:resource="http://purl.org/dc/dcmitype/StillImage" />
        <dc:title></dc:title>
      </cc:Work>
    </rdf:RDF>
  </metadata>
  <defs
     id="defs32" />
  <sodipodi:namedview
     pagecolor="#333333"
     bordercolor="#666666"
     borderopacity="1"
     objecttolerance="10"
     gridtolerance="10"
     guidetolerance="10"
     inkscape:pageopacity="1"
     inkscape:pageshadow="2"
     inkscape:window-width="1366"
     inkscape:window-height="740"
     id="namedview30"
     showgrid="true"
     showguides="true"
     inkscape:guide-bbox="true"
     inkscape:zoom="27.002491"
     inkscape:cx="10.087102"
     inkscape:cy="8.4522438"
     inkscape:window-x="0"
     inkscape:window-y="28"
     inkscape:window-maximized="1"
     inkscape:current-layer="svg2">
    <inkscape:grid
       type="xygrid"
       id="grid3023"
       empspacing="5"
       visible="true"
       enabled="true"
       snapvisiblegridlinesonly="true" />
  </sodipodi:namedview>
  <path
     style="fill:#bebebe;fill-opacity:1;stroke:none"
     d="M 2,1 7,1 7,3 4,3 C 3.4593204,3 3,3.4161233 3,4 L 3,7 1,7 1,2 C 1,1.4765992 1.4593204,1 2,1 z"
     id="path3025"
     inkscape:connector-curvature="0"
     sodipodi:nodetypes="ccccccccc" />
  <path
     sodipodi:nodetypes="ccccccccc"
     inkscape:connector-curvature="0"
     id="path3854"
     d="m 1,14 0,-5 2,0 0,3 c 0,0.54068 0.416123,1 1,1 l 3,0 0,2 -5,0 C 1.4765992,15 1,14.54068 1,14 z"
     style="fill:#bebebe;fill-opacity:1;stroke:none" />
  <path
     sodipodi:nodetypes="ccccccccc"
     inkscape:connector-curvature="0"
     id="path3856"
     d="m 14,1 -5,0 0,2 3,0 c 0.54068,0 1,0.4161233 1,1 l 0,3 2,0 0,-5 C 15,1.4765992 14.54068,1 14,1 z"
     style="fill:#bebebe;fill-opacity:1;stroke:none" />
  <path
     style="fill:#bebebe;fill-opacity:1;stroke:none"
     d="m 15,14 0,-5 -2,0 0,3 c 0,0.54068 -0.416123,1 -1,1 l -3,0 0,2 5,0 c 0.523401,0 1,-0.45932 1,-1 z"
     id="path3858"
     inkscape:connector-curvature="0"
     sodipodi:nodetypes="ccccccccc" />
</svg>

<svg xmlns="http://www.w3.org/2000/svg" viewBox="0 0 16 16">
 <path d="m 2 1 5 0 0 2 -3 0 c -0.541 0 -1 0.416 -1 1 l 0 3 -2 0 0 -5 c 0 -0.523 0.459 -1 1 -1 z" style="fill:#bebebe;fill-opacity:1;stroke:none"/>
 <path d="m 1 14 0 -5 2 0 0 3 c 0 0.541 0.416 1 1 1 l 3 0 0 2 -5 0 c -0.523 0 -1 -0.459 -1 -1 z" style="fill:#bebebe;fill-opacity:1;stroke:none"/>
 <path d="m 14 1 -5 0 0 2 3 0 c 0.541 0 1 0.416 1 1 l 0 3 2 0 0 -5 c 0 -0.523 -0.459 -1 -1 -1 z" style="fill:#bebebe;fill-opacity:1;stroke:none"/>
 <path d="m 15 14 0 -5 -2 0 0 3 c 0 0.541 -0.416 1 -1 1 l -3 0 0 2 5 0 c 0.523 0 1 -0.459 1 -1 z" style="fill:#bebebe;fill-opacity:1;stroke:none"/>
</svg>
